X:186
T:Weaver Murphy's Reel
B:Terry "Cuz" Teahan "Sliabh Luachra on Parade" 1980
Z:Patrick Cavanagh
M:4/4
L:1/8
R:Reel
K:D
B2 | A2BA F2A2 | B2BA BcdB | A2BA F2A2 | B2E2 E2B2 | 
A2BA F2A2 | B2BA BcdB | A2BA F2AF | E2D2 D2 :| 
Bc | d2f2 f2d2 | c2B2 BAFA | B2B2 e2c2 | B2A2 A2Bc | 
d2fd d2fd | c2B2 BAFA | A2BA F2AF | E2D2 D2 :|| 

